X: 05051
T: LOUIE'S JIG
C: Bob McQuillen 28 Mar 81
B: Bob's Note Book 5 #51
%R: jig
Z: 2021 John Chambers <jc:trillian.mit.edu>
M: 6/8
L: 1/8
K: G
B,2C \
| DED B,DG | FGA A2G | FGA ABc | B2G DBc |\
| dBG GBd | e2c A2G | Fed cEF | G3 :|
|: B2c \
| dBG GFG | AFD D2B | cBc ABc | ee2d Bcd |\
| dBd gfg | efg age | fga def | g3 :|
%%begintext align
%% Here's a little
%% ditty for Louis Garue over in Hancock, N.H.
%% I know you like the music, Louie, and
%% I hope that goes for this tune, too!
%%endtext

%%sep 1 1 500

%%sep 1 1 500

